;FLAVOR:UltiGCode
;TIME:9516      
;MATERIAL:9545      
;MATERIAL2:0         

;Layer count: 248
;LAYER:0
M107
G0 F3000 X81.852 Y101.479 Z0.280
;TYPE:SKIRT
G1 F1500 X82.683 Y100.970 E0.10641
G1 X83.581 Y100.598 E0.21256
G1 X84.532 Y100.370 E0.31935
G1 X85.377 Y100.305 E0.41190
G1 X110.305 Y100.305 E3.13403
G1 X110.305 Y99.905 E3.17771
G1 X119.695 Y99.905 E4.20310
G1 X119.695 Y100.305 E4.24678
G1 X144.622 Y100.305 E6.96881
G1 X145.467 Y100.370 E7.06136
G1 X146.418 Y100.598 E7.16815
G1 X147.316 Y100.970 E7.27429
G1 X148.147 Y101.479 E7.38071
G1 X148.887 Y102.112 E7.48705
G1 X149.520 Y102.852 E7.59338
G1 X150.029 Y103.683 E7.69980
G1 X150.401 Y104.581 E7.80594
G1 X150.628 Y105.528 E7.91228
G1 X150.695 Y106.374 E8.00496
G1 X150.695 Y118.626 E9.34287
G1 X150.628 Y119.471 E9.43544
G1 X150.401 Y120.418 E9.54178
G1 X150.029 Y121.316 E9.64792
G1 X149.520 Y122.147 E9.75434
G1 X148.887 Y122.887 E9.86068
G1 X148.147 Y123.520 E9.96702
G1 X147.316 Y124.029 E10.07343
G1 X146.418 Y124.401 E10.17957
G1 X145.471 Y124.628 E10.28592
G1 X144.626 Y124.695 E10.37848
G1 X85.373 Y124.695 E16.84891
G1 X84.528 Y124.628 E16.94147
G1 X83.581 Y124.401 E17.04781
G1 X82.683 Y124.029 E17.15395
G1 X81.852 Y123.520 E17.26037
G1 X81.112 Y122.887 E17.36671
G1 X80.479 Y122.147 E17.47305
G1 X79.970 Y121.316 E17.57946
G1 X79.598 Y120.418 E17.68561
G1 X79.370 Y119.467 E17.79240
G1 X79.305 Y118.622 E17.88494
G1 X79.305 Y106.378 E19.22199
G1 X79.370 Y105.532 E19.31464
G1 X79.598 Y104.581 E19.42144
G1 X79.970 Y103.683 E19.52758
G1 X80.479 Y102.852 E19.63399
G1 X81.112 Y102.112 E19.74033
G1 X81.852 Y101.479 E19.84667
G10
G0 F3000 X83.852 Y104.230
;TYPE:WALL-OUTER
G11
G1 F1500 X84.226 Y104.001 E19.89456
G1 X84.630 Y103.833 E19.94234
G1 X85.066 Y103.728 E19.99131
G1 X85.501 Y103.695 E20.03895
G1 X113.305 Y103.695 E23.07515
G1 X113.305 Y106.305 E23.36016
G1 X105.305 Y106.305 E24.23376
G1 X105.305 Y118.695 E25.58675
G1 X124.695 Y118.695 E27.70414
G1 X124.695 Y106.305 E29.05712
G1 X116.695 Y106.305 E29.93072
G1 X116.695 Y103.695 E30.21574
G1 X144.498 Y103.695 E33.25182
G1 X144.933 Y103.728 E33.29946
G1 X145.369 Y103.833 E33.34843
G1 X145.773 Y104.001 E33.39621
G1 X146.147 Y104.230 E33.44410
G1 X146.483 Y104.516 E33.49229
G1 X146.769 Y104.852 E33.54047
G1 X146.998 Y105.226 E33.58836
G1 X147.166 Y105.630 E33.63614
G1 X147.271 Y106.066 E33.68511
G1 X147.305 Y106.500 E33.73265
G1 X147.305 Y118.500 E35.04305
G1 X147.271 Y118.933 E35.09048
G1 X147.166 Y119.369 E35.13945
G1 X146.998 Y119.773 E35.18723
G1 X146.769 Y120.147 E35.23512
G1 X146.483 Y120.483 E35.28330
G1 X146.147 Y120.769 E35.33148
G1 X145.773 Y120.998 E35.37937
G1 X145.369 Y121.166 E35.42715
G1 X144.933 Y121.271 E35.47612
G1 X144.498 Y121.305 E35.52377
G1 X85.501 Y121.305 E41.96624
G1 X85.066 Y121.271 E42.01389
G1 X84.630 Y121.166 E42.06286
G1 X84.226 Y120.998 E42.11064
G1 X83.852 Y120.769 E42.15853
G1 X83.516 Y120.483 E42.20671
G1 X83.230 Y120.147 E42.25490
G1 X83.001 Y119.773 E42.30278
G1 X82.833 Y119.369 E42.35056
G1 X82.728 Y118.933 E42.39954
G1 X82.695 Y118.500 E42.44696
G1 X82.695 Y106.500 E43.75736
G1 X82.728 Y106.066 E43.80489
G1 X82.833 Y105.630 E43.85386
G1 X83.001 Y105.226 E43.90164
G1 X83.230 Y104.852 E43.94953
G1 X83.516 Y104.516 E43.99771
G1 X83.852 Y104.230 E44.04589
G0 F3000 X84.020 Y104.473
G0 X89.631 Y109.094
G0 X89.793 Y109.340
G1 F1500 X89.749 Y109.372 E44.05183
G1 X89.287 Y109.854 E44.12474
G1 X88.887 Y110.434 E44.20168
G1 X88.595 Y111.060 E44.27711
G1 X88.395 Y111.796 E44.36040
G1 X88.341 Y112.441 E44.43108
G1 X88.335 Y112.498 E44.43734
G1 X88.390 Y113.149 E44.50868
G1 X88.396 Y113.205 E44.51483
G1 X88.572 Y113.887 E44.59174
G1 X88.841 Y114.480 E44.66285
G1 X88.864 Y114.530 E44.66886
G1 X89.237 Y115.082 E44.74161
G1 X89.719 Y115.597 E44.81864
G1 X90.271 Y116.013 E44.89411
G1 X90.318 Y116.046 E44.90039
G1 X90.897 Y116.338 E44.97120
G1 X90.946 Y116.363 E44.97720
G1 X91.584 Y116.558 E45.05006
G1 X92.266 Y116.653 E45.12525
G1 X92.323 Y116.661 E45.13153
G1 X92.974 Y116.633 E45.20269
G1 X93.030 Y116.630 E45.20881
G1 X93.667 Y116.493 E45.27996
G1 X94.324 Y116.238 E45.35692
G1 X94.375 Y116.217 E45.36295
G1 X94.929 Y115.876 E45.43399
G1 X95.475 Y115.408 E45.51251
G1 X95.924 Y114.864 E45.58954
G1 X96.275 Y114.250 E45.66677
G1 X96.511 Y113.603 E45.74198
G1 X96.642 Y112.893 E45.82082
G1 X96.649 Y112.203 E45.89617
G1 X96.649 Y112.146 E45.90239
G1 X96.537 Y111.490 E45.97506
G1 X96.313 Y110.838 E46.05035
G1 X96.294 Y110.785 E46.05650
G1 X95.970 Y110.202 E46.12933
G1 X95.533 Y109.650 E46.20621
G1 X95.007 Y109.179 E46.28331
G1 X94.424 Y108.812 E46.35854
G1 X94.375 Y108.782 E46.36481
G1 X93.771 Y108.539 E46.43591
G1 X93.720 Y108.518 E46.44193
G1 X93.083 Y108.381 E46.51308
G1 X93.031 Y108.369 E46.51891
G1 X92.380 Y108.341 E46.59007
G1 X92.323 Y108.338 E46.59630
G1 X91.622 Y108.429 E46.67349
G1 X90.985 Y108.623 E46.74621
G1 X90.366 Y108.928 E46.82156
G1 X90.316 Y108.954 E46.82771
G1 X89.793 Y109.340 E46.89870
G0 F3000 X89.631 Y109.094
G0 X91.539 Y108.042
G0 X93.919 Y108.174
G0 X95.820 Y109.380
G0 X104.969 Y119.031
G0 X125.031 Y119.031
G0 X133.046 Y112.421
G0 X133.341 Y112.441
G1 F1500 X133.335 Y112.498 E46.90495
G1 X133.390 Y113.149 E46.97630
G1 X133.396 Y113.205 E46.98245
G1 X133.572 Y113.887 E47.05936
G1 X133.841 Y114.480 E47.13047
G1 X133.864 Y114.530 E47.13648
G1 X134.237 Y115.082 E47.20923
G1 X134.719 Y115.597 E47.28626
G1 X135.271 Y116.013 E47.36173
G1 X135.318 Y116.046 E47.36801
G1 X135.897 Y116.338 E47.43882
G1 X135.946 Y116.363 E47.44482
G1 X136.584 Y116.558 E47.51768
G1 X137.266 Y116.653 E47.59287
G1 X137.323 Y116.661 E47.59915
G1 X137.974 Y116.633 E47.67031
G1 X138.030 Y116.630 E47.67643
G1 X138.667 Y116.493 E47.74758
G1 X139.324 Y116.238 E47.82454
G1 X139.375 Y116.217 E47.83057
G1 X139.929 Y115.876 E47.90160
G1 X140.475 Y115.408 E47.98013
G1 X140.924 Y114.864 E48.05716
G1 X141.275 Y114.250 E48.13439
G1 X141.511 Y113.603 E48.20960
G1 X141.642 Y112.893 E48.28844
G1 X141.649 Y112.203 E48.36379
G1 X141.649 Y112.146 E48.37001
G1 X141.537 Y111.490 E48.44268
G1 X141.313 Y110.838 E48.51797
G1 X141.294 Y110.785 E48.52412
G1 X140.970 Y110.202 E48.59695
G1 X140.533 Y109.650 E48.67383
G1 X140.007 Y109.179 E48.75093
G1 X139.424 Y108.812 E48.82616
G1 X139.375 Y108.782 E48.83243
G1 X138.771 Y108.539 E48.90353
G1 X138.720 Y108.518 E48.90955
G1 X138.083 Y108.381 E48.98070
G1 X138.031 Y108.369 E48.98653
G1 X137.380 Y108.341 E49.05769
G1 X137.323 Y108.338 E49.06392
G1 X136.622 Y108.429 E49.14111
G1 X135.985 Y108.623 E49.21382
G1 X135.366 Y108.928 E49.28918
G1 X135.316 Y108.954 E49.29533
G1 X134.793 Y109.340 E49.36632
G1 X134.749 Y109.372 E49.37226
G1 X134.287 Y109.854 E49.44517
G1 X133.887 Y110.434 E49.52210
G1 X133.595 Y111.060 E49.59753
G1 X133.395 Y111.796 E49.68082
G1 X133.341 Y112.441 E49.75150
G0 F3000 X133.199 Y112.516
;TYPE:FILL
G1 F1500 X124.515 Y103.832 E51.09259
G0 F3000 X125.066 Y103.832
G1 F1500 X133.240 Y112.005 E52.35484
G0 F3000 X133.323 Y111.537
G1 F1500 X125.618 Y103.832 E53.54474
G0 F3000 X126.169 Y103.832
G1 F1500 X133.440 Y111.102 E54.66754
G0 F3000 X133.604 Y110.715
G1 F1500 X126.721 Y103.832 E55.73049
G0 F3000 X127.272 Y103.832
G1 F1500 X133.783 Y110.343 E56.73600
G0 F3000 X134.008 Y110.016
G1 F1500 X127.824 Y103.832 E57.69101
G0 F3000 X128.375 Y103.832
G1 F1500 X134.244 Y109.700 E58.59729
G0 F3000 X134.514 Y109.419
G1 F1500 X128.927 Y103.832 E59.46011
G0 F3000 X129.479 Y103.832
G1 F1500 X134.805 Y109.158 E60.28261
G0 F3000 X135.122 Y108.924
G1 F1500 X130.030 Y103.832 E61.06898
G0 F3000 X130.582 Y103.832
G1 F1500 X135.472 Y108.722 E61.82415
G0 F3000 X135.842 Y108.540
G1 F1500 X131.133 Y103.832 E62.55130
G0 F3000 X131.685 Y103.832
G1 F1500 X136.250 Y108.398 E63.25636
G0 F3000 X136.686 Y108.282
G1 F1500 X132.236 Y103.832 E63.94358
G0 F3000 X132.788 Y103.832
G1 F1500 X137.174 Y108.218 E64.62092
G0 F3000 X137.725 Y108.217
G1 F1500 X133.339 Y103.832 E65.29818
G0 F3000 X133.891 Y103.832
G1 F1500 X138.359 Y108.300 E65.98818
G0 F3000 X139.157 Y108.547
G1 F1500 X134.442 Y103.832 E66.71633
G0 F3000 X134.994 Y103.832
G1 F1500 X147.167 Y116.005 E68.59623
G0 F3000 X147.167 Y116.556
G1 F1500 X141.459 Y110.848 E69.47773
G0 F3000 X141.702 Y111.642
G1 F1500 X147.167 Y117.108 E70.32178
G0 F3000 X147.167 Y117.659
G1 F1500 X141.783 Y112.275 E71.15324
G0 F3000 X141.778 Y112.822
G1 F1500 X147.167 Y118.211 E71.98548
G0 F3000 X147.148 Y118.744
G1 F1500 X141.704 Y113.300 E72.82621
G0 F3000 X141.602 Y113.749
G1 F1500 X147.062 Y119.209 E73.66941
G0 F3000 X146.914 Y119.613
G1 F1500 X141.455 Y114.153 E74.51253
G0 F3000 X141.274 Y114.525
G1 F1500 X146.717 Y119.967 E75.35302
G0 F3000 X146.477 Y120.278
G1 F1500 X141.074 Y114.875 E76.18742
G0 F3000 X140.833 Y115.186
G1 F1500 X146.195 Y120.548 E77.01549
G0 F3000 X145.871 Y120.775
G1 F1500 X140.584 Y115.489 E77.83189
G0 F3000 X140.290 Y115.747
G1 F1500 X145.504 Y120.960 E78.63702
G0 F3000 X145.084 Y121.092
G1 F1500 X139.991 Y115.999 E79.42355
G0 F3000 X139.650 Y116.209
G1 F1500 X144.600 Y121.159 E80.18799
G0 F3000 X144.056 Y121.167
G1 F1500 X139.288 Y116.398 E80.92440
G0 F3000 X138.890 Y116.553
G1 F1500 X143.505 Y121.167 E81.63702
G0 F3000 X142.953 Y121.167
G1 F1500 X138.462 Y116.676 E82.33058
G0 F3000 X138.003 Y116.768
G1 F1500 X142.402 Y121.167 E83.00992
G0 F3000 X141.850 Y121.167
G1 F1500 X137.474 Y116.792 E83.68564
G0 F3000 X136.869 Y116.737
G1 F1500 X141.299 Y121.167 E84.36978
G0 F3000 X140.747 Y121.167
G1 F1500 X136.148 Y116.568 E85.08001
G0 F3000 X135.039 Y116.011
G1 F1500 X140.195 Y121.167 E85.87626
G0 F3000 X139.644 Y121.167
G1 F1500 X124.831 Y106.354 E88.16386
G0 F3000 X124.644 Y106.167
G1 F1500 X122.308 Y103.832 E88.52454
G0 F3000 X121.757 Y103.832
G1 F1500 X124.092 Y106.167 E88.88514
G0 F3000 X123.541 Y106.167
G1 F1500 X121.205 Y103.832 E89.24582
G0 F3000 X120.654 Y103.832
G1 F1500 X122.989 Y106.167 E89.60641
G0 F3000 X122.438 Y106.167
G1 F1500 X120.102 Y103.832 E89.96709
G0 F3000 X119.551 Y103.832
G1 F1500 X121.886 Y106.167 E90.32769
G0 F3000 X121.335 Y106.167
G1 F1500 X118.999 Y103.832 E90.68837
G0 F3000 X118.448 Y103.832
G1 F1500 X120.783 Y106.167 E91.04896
G0 F3000 X120.232 Y106.167
G1 F1500 X117.896 Y103.832 E91.40964
G0 F3000 X117.345 Y103.832
G1 F1500 X119.680 Y106.167 E91.77024
G0 F3000 X119.129 Y106.167
G1 F1500 X116.831 Y103.869 E92.12513
G0 F3000 X116.831 Y104.421
G1 F1500 X118.577 Y106.167 E92.39476
G0 F3000 X118.026 Y106.167
G1 F1500 X116.831 Y104.972 E92.57931
G0 F3000 X116.831 Y105.524
G1 F1500 X117.474 Y106.167 E92.67861
G0 F3000 X116.922 Y106.167
G1 F1500 X116.831 Y106.075 E92.69274
G0 F3000 X116.990 Y106.075
G0 X125.031 Y105.969
G0 X125.031 Y119.031
G0 X104.969 Y119.031
G0 X104.969 Y105.969
G0 X113.010 Y105.721
G0 X113.167 Y105.721
G1 F1500 X111.278 Y103.832 E92.98446
G0 F3000 X111.829 Y103.832
G1 F1500 X113.167 Y105.170 E93.19109
G0 F3000 X113.167 Y104.618
G1 F1500 X112.381 Y103.832 E93.31248
G0 F3000 X112.932 Y103.832
G1 F1500 X113.167 Y104.067 E93.34877
G0 F3000 X113.010 Y104.067
G0 X113.062 Y106.010
G0 X113.062 Y106.167
G1 F1500 X110.726 Y103.832 E93.70944
G0 F3000 X110.175 Y103.832
G1 F1500 X112.510 Y106.167 E94.07004
G0 F3000 X111.959 Y106.167
G1 F1500 X109.623 Y103.832 E94.43072
G0 F3000 X109.071 Y103.832
G1 F1500 X111.407 Y106.167 E94.79140
G0 F3000 X110.855 Y106.167
G1 F1500 X108.520 Y103.832 E95.15200
G0 F3000 X107.968 Y103.832
G1 F1500 X110.304 Y106.167 E95.51267
G0 F3000 X109.752 Y106.167
G1 F1500 X107.417 Y103.832 E95.87327
G0 F3000 X106.865 Y103.832
G1 F1500 X109.201 Y106.167 E96.23395
G0 F3000 X108.649 Y106.167
G1 F1500 X106.314 Y103.832 E96.59455
G0 F3000 X105.762 Y103.832
G1 F1500 X108.098 Y106.167 E96.95522
G0 F3000 X107.546 Y106.167
G1 F1500 X105.211 Y103.832 E97.31582
G0 F3000 X104.659 Y103.832
G1 F1500 X106.995 Y106.167 E97.67650
G0 F3000 X106.443 Y106.167
G1 F1500 X104.108 Y103.832 E98.03710
G0 F3000 X103.556 Y103.832
G1 F1500 X105.892 Y106.167 E98.39777
G0 F3000 X105.340 Y106.167
G1 F1500 X103.004 Y103.832 E98.75845
G0 F3000 X102.453 Y103.832
G1 F1500 X105.167 Y106.546 E99.17758
G0 F3000 X105.167 Y107.098
G1 F1500 X101.901 Y103.832 E99.68195
G0 F3000 X101.350 Y103.832
G1 F1500 X105.167 Y107.649 E100.27142
G0 F3000 X105.167 Y108.201
G1 F1500 X100.798 Y103.832 E100.94613
G0 F3000 X100.247 Y103.832
G1 F1500 X105.167 Y108.753 E101.70602
G0 F3000 X105.167 Y109.304
G1 F1500 X99.695 Y103.832 E102.55107
G0 F3000 X99.143 Y103.831
G1 F1500 X105.167 Y109.856 E103.48145
G0 F3000 X105.167 Y110.407
G1 F1500 X98.591 Y103.831 E104.49699
G0 F3000 X98.040 Y103.831
G1 F1500 X105.167 Y110.959 E105.59771
G0 F3000 X105.167 Y111.510
G1 F1500 X97.488 Y103.831 E106.78359
G0 F3000 X96.937 Y103.831
G1 F1500 X105.167 Y112.062 E108.05464
G0 F3000 X105.167 Y112.613
G1 F1500 X96.385 Y103.831 E109.41087
G0 F3000 X95.834 Y103.831
G1 F1500 X105.167 Y113.165 E110.85226
G0 F3000 X105.167 Y113.716
G1 F1500 X95.282 Y103.831 E112.37882
G0 F3000 X94.731 Y103.831
G1 F1500 X105.167 Y114.268 E113.99055
G0 F3000 X105.167 Y114.819
G1 F1500 X94.179 Y103.831 E115.68745
G0 F3000 X93.628 Y103.831
G1 F1500 X105.167 Y115.371 E117.46952
G0 F3000 X105.167 Y115.923
G1 F1500 X93.076 Y103.831 E119.33684
G0 F3000 X92.524 Y103.831
G1 F1500 X105.167 Y116.474 E121.28932
G0 F3000 X105.167 Y117.026
G1 F1500 X91.973 Y103.831 E123.32698
G0 F3000 X91.421 Y103.831
G1 F1500 X105.167 Y117.577 E125.44980
G0 F3000 X105.167 Y118.129
G1 F1500 X90.870 Y103.831 E127.65779
G0 F3000 X90.318 Y103.831
G1 F1500 X105.167 Y118.680 E129.95096
G0 F3000 X105.318 Y118.831
G1 F1500 X107.654 Y121.167 E130.31171
G0 F3000 X107.103 Y121.167
G1 F1500 X96.113 Y110.177 E132.00892
G0 F3000 X96.580 Y111.196
G1 F1500 X106.551 Y121.167 E133.54876
G0 F3000 X106.000 Y121.167
G1 F1500 X96.749 Y111.917 E134.97734
G0 F3000 X96.782 Y112.501
G1 F1500 X105.448 Y121.167 E136.31565
G0 F3000 X104.897 Y121.167
G1 F1500 X96.756 Y113.026 E137.57288
G0 F3000 X96.669 Y113.492
G1 F1500 X104.345 Y121.167 E138.75822
G0 F3000 X103.794 Y121.167
G1 F1500 X96.542 Y113.916 E139.87809
G0 F3000 X96.393 Y114.318
G1 F1500 X103.242 Y121.167 E140.93579
G0 F3000 X102.690 Y121.167
G1 F1500 X96.192 Y114.669 E141.93929
G0 F3000 X95.980 Y115.008
G1 F1500 X102.139 Y121.167 E142.89044
G0 F3000 X101.587 Y121.167
G1 F1500 X95.730 Y115.310 E143.79495
G0 F3000 X95.465 Y115.596
G1 F1500 X101.036 Y121.167 E144.65529
G0 F3000 X100.484 Y121.167
G1 F1500 X95.168 Y115.850 E145.47633
G0 F3000 X94.850 Y116.085
G1 F1500 X99.933 Y121.167 E146.26123
G0 F3000 X99.381 Y121.167
G1 F1500 X94.509 Y116.295 E147.01362
G0 F3000 X94.124 Y116.461
G1 F1500 X98.830 Y121.167 E147.74038
G0 F3000 X98.278 Y121.167
G1 F1500 X93.727 Y116.616 E148.44320
G0 F3000 X93.275 Y116.716
G1 F1500 X97.727 Y121.167 E149.13065
G0 F3000 X97.175 Y121.167
G1 F1500 X92.785 Y116.777 E149.80861
G0 F3000 X92.245 Y116.789
G1 F1500 X96.624 Y121.167 E150.48479
G0 F3000 X96.072 Y121.167
G1 F1500 X91.604 Y116.699 E151.17480
G0 F3000 X90.789 Y116.436
G1 F1500 X95.520 Y121.167 E151.90541
G0 F3000 X94.969 Y121.167
G1 F1500 X82.831 Y109.030 E153.77983
G0 F3000 X82.831 Y109.581
G1 F1500 X94.417 Y121.167 E155.56908
G0 F3000 X93.866 Y121.167
G1 F1500 X82.831 Y110.133 E157.27317
G0 F3000 X82.831 Y110.684
G1 F1500 X93.314 Y121.167 E158.89208
G0 F3000 X92.763 Y121.167
G1 F1500 X82.831 Y111.236 E160.42582
G0 F3000 X82.831 Y111.787
G1 F1500 X92.211 Y121.167 E161.87439
G0 F3000 X91.660 Y121.167
G1 F1500 X82.831 Y112.339 E163.23780
G0 F3000 X82.831 Y112.891
G1 F1500 X91.108 Y121.167 E164.51595
G0 F3000 X90.557 Y121.167
G1 F1500 X82.831 Y113.442 E165.70902
G0 F3000 X82.831 Y113.994
G1 F1500 X90.005 Y121.167 E166.81684
G0 F3000 X89.453 Y121.167
G1 F1500 X82.831 Y114.545 E167.83949
